app/public/dtpr-icons/image.svg

<svg width="36" height="36" viewBox="0 0 36 36" fill="none" xmlns="http://www.w3.org/2000/svg">
<path d="M31.8564 8.8453L19 1.42265C18.3812 1.06538 17.6188 1.06538 17 1.42265L4.14359 8.8453C3.52479 9.20257 3.14359 9.86282 3.14359 10.5774V25.4226C3.14359 26.1372 3.52479 26.7974 4.14359 27.1547L17 34.5774C17.6188 34.9346 18.3812 34.9346 19 34.5774L31.8564 27.1547C32.4752 26.7974 32.8564 26.1372 32.8564 25.4226V10.5774C32.8564 9.86282 32.4752 9.20256 31.8564 8.8453Z" stroke="black" stroke-width="2"/>
<path fill-rule="evenodd" clip-rule="evenodd" d="M22.83 10H26C27.1 10 28 10.9 28 12V24C28 25.1 27.1 26 26 26H10C8.9 26 8 25.1 8 24V12C8 10.9 8.9 10 10 10H13.17L15 8H21L22.83 10ZM10 24H26V12H21.95L20.12 10H15.88L14.05 12H10V24ZM18 13C15.24 13 13 15.24 13 18C13 20.76 15.24 23 18 23C20.76 23 23 20.76 23 18C23 15.24 20.76 13 18 13ZM15 18C15 19.65 16.35 21 18 21C19.65 21 21 19.65 21 18C21 16.35 19.65 15 18 15C16.35 15 15 16.35 15 18Z" fill="black"/>
</svg>

<svg xmlns="http://www.w3.org/2000/svg" width="36" height="36" fill="none"><path stroke="#000" stroke-width="2" d="M31.856 8.845 19 1.423a2 2 0 0 0-2 0L4.144 8.845a2 2 0 0 0-1 1.732v14.846a2 2 0 0 0 1 1.732L17 34.577a2 2 0 0 0 2 0l12.856-7.422a2 2 0 0 0 1-1.732V10.577a2 2 0 0 0-1-1.732Z"/><path fill="#000" fill-rule="evenodd" d="M22.83 10H26c1.1 0 2 .9 2 2v12c0 1.1-.9 2-2 2H10c-1.1 0-2-.9-2-2V12c0-1.1.9-2 2-2h3.17L15 8h6zM10 24h16V12h-4.05l-1.83-2h-4.24l-1.83 2H10zm8-11c-2.76 0-5 2.24-5 5s2.24 5 5 5 5-2.24 5-5-2.24-5-5-5m-3 5c0 1.65 1.35 3 3 3s3-1.35 3-3-1.35-3-3-3-3 1.35-3 3" clip-rule="evenodd"/></svg>
